!!!SOCIAL_FUNCTION:	bird dance songs
!!!PDT:	1956
!!!OTL: No_164_Hair_Dance_Song_(b).krn
!!!LANG: Non-Tone
!!!LING_GROUP: Muskogean
!!!REG: Florida
**kern
*staff1
=1-
*clefF4
*k[f#c#g#d#]
*M3/4
16G#\LL
16G#\J
8G#\J
16G#\LK
8.F#\J
16E\LL
16E\J
8E\J
=2||
*M2/4
4G#\
8F#\
8r
=3
16G#\LL
16G#\J
8G#\J
4F#\
=4||
*M3/4
16E/LL
16E/
16C#/
16BB/JJ
4BB/
4r
=5
4BB/
8BB/L
8E/J
4BB/
=6
4BB/
16C#/LK
8.BB/J
8BB/L
8F#/J
=7||
*M2/4
(8E\L
8F#\J)
(8E/L
8C#/J)
=8
8BB/
8r
4r
=9||
*M3/4
4BB/
16C#/LK
8.BB/J
4BB/
=10
16G#\LK
8.G#\J
4F#\
16E\LK
8.E\J
=11||
*M2/4
4G#\
8F#\
8r
=12
16G#\LK
8G#\
16G#\Jk
4F#\
=13
16E/LL
16E/
16C#/
16BB/JJ
4BB/
==
*-
